X: 775
T: Paddy On The Turnpike
C:Bill Monroe
B: jims roots
M:4/4
L:1/8
Q: 1/4=100
K:G
V:1 
%S: MandoZine TablEdit Archives
%S: PaddyOnTheTurnpike-G-Monroe.tef
%Z: Transcribed by Don Grieser for MandoZine
%Q: 480
 xDF |: "G"Ggg^a g2 gg | dgg^a g2 gg | "F"dAde =fedg | ed [gd][gd] [g2d2] DF |
 "G"GDGA Bdde | =fedg edcA | BAGB "D"AGFD |[1 "G"G2 GG G2 [GG,][GG,] :|[2 "G"G2 GG G2 G,G, ||
|: "G"G,^A,B,D GGGA | BAGB AG G2 | "F"=FFFG FFFF | GDGA ^A=A G2 |
"G"G,^A,B,D DGGA |  Bdde =fedd | "D"BAGB AGFD |[1 "G"G2 GG G2 G,G, :|[2 "G"G2 GG G4 ||
% abcbook-tune_id 6298c27995aaf278f7b776ab


% abcbook-boost 0
% abcbook-tablature 
% abcbook-transpose 
% abcbook-lastupdated 1654178426335
% abcbook-soundfonts 
% abcbook-repeats 1


